X:1
T:Klamath, 76.76 D repeat
T:Klamath, 76.76 D repeat
T:Felix Mendelssohn (1809-1847)
T:Public Domain Courtesy of the Cyber Hymnal™
C:Felix Mendelssohn (1809-1847)
Z:Public Domain
Z:Courtesy of the Cyber Hymnal™
%%score ( 1 2 ) ( 3 4 )
L:1/8
Q:1/4=108
M:4/4
K:Eb
V:1 treble 
V:2 treble 
V:3 bass 
V:4 bass 
V:1
 B2 | G2 E2 D3 E | [EG]4 [DF]2 [B,E]2 | [EA]2 [EG]2 [Fc]3 [Fc] | [GB]4 z2 [AB]2 | %5
 [Gc]2 [EB]2 [EA]3 [EG] | [EG]4 [EF]2 [Ec]2 | [Ec]2 [EF]2 [DA]3 [B,D] | [B,E]6 [EG]2 | %9
 [CG]3 [CF] F2 F2 | [DA]4 [EG]4 | [=EB]2 [EB]>[EB] [EB]2 [EB]2 | =A6 [^Fd]2 | %13
 [Ge]2 [EB]2 [EA]2 [EG]2 | [EG]4 [EF]2 [Ec]2 | [Dc]3 [DF] [DG]2 [DA]2 | [EG]4 z2 [FB]2 | %17
 [GB]2 [Ee]2 [Ddf]3 [Df] | ([Ge]2 [Fd]2) [Ec]2 [F=B]2 | c2 z2 A2 z2 | A6 [B,D]2 | %21
 !fermata![B,E]6 |] %22
V:2
 B2 | G2 E2 D3 E | x8 | x8 | x8 | x8 | x8 | x8 | x8 | x4 F2 F2 | x8 | x8 | =A6 x2 | x8 | x8 | x8 | %16
 x8 | x8 | x8 | E8- | (E2 D2 C2) x2 | x6 |] %22
V:3
 B,2 | G,2 E,2 D,3 E, | [B,,B,]4 [B,,A,]2 [B,,G,]2 | [B,,C]2 [B,,B,]2 [A,D]3 [A,D] | %4
 [G,E]4 z2 [F,D]2 | [E,E]2 [G,E]2 C3 [B,C] | [A,C]4 [A,C]2 A,2 | A,2 [A,,F,]2 [B,,F,]3 [B,,A,] | %8
 [E,G,]6 [E,B,]2 | [E,=A,]3 [E,A,] [D,B,]2 [D,B,]2 | [F,=B,]4 [E,C]4 | %11
 [G,^C]2 [G,C]>[G,C] [G,C]2 [G,C]2 | [^F,D]6 [D,C]2 | [G,B,]2 [G,B,]2 [G,B,]2 [G,B,]2 | %14
 [A,C]4 [A,,C]2 [A,,F,]2 | [B,,A,]3 [B,,A,] [B,,G,]2 [B,,F,]2 | E,4 B,2 [A,D]2 | %17
 [G,E]2 [G,B,]2 [G,=B,]3 [G,B,] | [G,=B,]4 [G,C]2 [G,D]2 | [C,C]2 z2 [A,,C]2 z2 | %20
 [B,,F,]6 [B,,A,]2 | !fermata![E,G,]6 |] %22
V:4
 B,2 | G,2 E,2 D,3 E, | x8 | x8 | x8 | x4 C3 x | x6 A,2 | A,2 x6 | x8 | x8 | x8 | x8 | x8 | x8 | %14
 x8 | x8 | (E,2 G,2) x4 | x8 | x8 | x8 | x8 | x6 |] %22

